X:1
T:The Road To Glountane
R:barndance
M:4/4
L:1/8
K:Gmaj
GE|: D2DE G2GA|BddB AGE2|e2 dB GABG|dBAG EGGE|
D2DE G2GA|BddB AGE2|e2 dB GABG|1 dBAB G2GE:|2 dBAB G4||
|:dBde g2 ge|dBAG EGGA|BAGA BAAG|BGAG Bdge|
dBde g2 ge|dBAG EGGA|BAGA BAAG|1 BdAB G4:|2 BdAB G2GE||



